dist/img/svg/organizer_icon.svg

<svg xmlns="http://www.w3.org/2000/svg" viewBox="0 0 17.99 19"><style>.st0{fill:#000}</style><path class="st0" d="M5.99 5h7v3h-7zm7.5-1h-8c-.27 0-.5.22-.5.5v4c0 .27.23.5.5.5h8c.28 0 .5-.23.5-.5v-4c0-.28-.22-.5-.5-.5"/><path class="st0" d="M16.99 18h-15v-1.98l.59-.03c.23-.03.41-.24.41-.49 0-.14-.05-.26-.14-.36a.524.524 0 00-.36-.14h-.5v-1.98l.59-.03c.23-.03.41-.24.41-.49 0-.14-.05-.26-.14-.36a.524.524 0 00-.36-.14h-.5v-1.98l.59-.03c.23-.03.41-.24.41-.49 0-.28-.22-.5-.5-.5h-.5V7.02l.59-.03c.23-.03.41-.25.41-.49 0-.14-.05-.26-.14-.36A.524.524 0 002.49 6h-.5V4.02l.59-.03c.23-.03.41-.25.41-.49 0-.28-.22-.5-.5-.5h-.5V1h15zm1-16.5c0-.83-.67-1.5-1.5-1.5h-15c-.27 0-.5.22-.5.5v2.47L.41 3c-.23.03-.41.25-.41.5 0 .13.05.25.14.35.1.09.22.15.35.15h.5v1.97L.41 6c-.23.03-.41.25-.41.5 0 .13.05.25.14.35.1.09.22.15.35.15h.5v1.97L.41 9c-.23.03-.41.25-.41.5 0 .13.05.25.14.35.1.09.22.15.35.15h.5v1.97L.41 12c-.23.03-.41.25-.41.5 0 .13.05.25.14.35.1.09.22.15.35.15h.5v1.97L.41 15c-.23.03-.41.25-.41.5 0 .13.05.25.14.35.1.09.22.15.35.15h.5v2.5c0 .27.23.5.5.5h15c.83 0 1.5-.68 1.5-1.5z"/></svg>

<svg xmlns="http://www.w3.org/2000/svg" viewBox="0 0 17.99 19">
	<style type="text/css">
		.st0{fill:#000000;}
	</style>
	<path class="st0" d="M5.99 5L12.99 5L12.99 8L5.99 8ZM13.49,4L5.49,4C5.22,4 4.99,4.22 4.99,4.5L4.99,8.5C4.99,8.77 5.22,9 5.49,9L13.49,9C13.77,9 13.99,8.77 13.99,8.5L13.99,4.5C13.99,4.22 13.77,4 13.49,4"/>
	<path class="st0" d="M16.99,18L1.99,18L1.99,16.02L2.58,15.99C2.81,15.96 2.99,15.75 2.99,15.5C2.99,15.36 2.94,15.24 2.85,15.14C2.75,15.05 2.63,15 2.49,15L1.99,15L1.99,13.02L2.58,12.99C2.81,12.96 2.99,12.75 2.99,12.5C2.99,12.36 2.94,12.24 2.85,12.14C2.75,12.05 2.63,12 2.49,12L1.99,12L1.99,10.02L2.58,9.99C2.81,9.96 2.99,9.75 2.99,9.5C2.99,9.22 2.77,9 2.49,9L1.99,9L1.99,7.02L2.58,6.99C2.81,6.96 2.99,6.74 2.99,6.5C2.99,6.36 2.94,6.24 2.85,6.14C2.75,6.05 2.63,6 2.49,6L1.99,6L1.99,4.02L2.58,3.99C2.81,3.96 2.99,3.74 2.99,3.5C2.99,3.22 2.77,3 2.49,3L1.99,3L1.99,1L16.99,1ZM17.99,1.5C17.99,0.67 17.32,0 16.49,0L1.49,0C1.22,0 0.99,0.22 0.99,0.5L0.99,2.97L0.41,3C0.18,3.03 0,3.25 0,3.5C0,3.63 0.05,3.75 0.14,3.85C0.24,3.94 0.36,4 0.49,4L0.99,4L0.99,5.97L0.41,6C0.18,6.03 0,6.25 0,6.5C0,6.63 0.05,6.75 0.14,6.85C0.24,6.94 0.36,7 0.49,7L0.99,7L0.99,8.97L0.41,9C0.18,9.03 0,9.25 0,9.5C0,9.63 0.05,9.75 0.14,9.85C0.24,9.94 0.36,10 0.49,10L0.99,10L0.99,11.97L0.41,12C0.18,12.03 0,12.25 0,12.5C0,12.63 0.05,12.75 0.14,12.85C0.24,12.94 0.36,13 0.49,13L0.99,13L0.99,14.97L0.41,15C0.18,15.03 0,15.25 0,15.5C0,15.63 0.05,15.75 0.14,15.85C0.24,15.94 0.36,16 0.49,16L0.99,16L0.99,18.5C0.99,18.77 1.22,19 1.49,19L16.49,19C17.32,19 17.99,18.32 17.99,17.5Z"/>
</svg>
